!!!OTL: Spaete Reue.
!!!OTL-incipit: WEINE NICHT FEINSMAEGDELEIN
!!!ARE: Europa, Mitteleuropa, Deutschland, Mittelrhein
!!!SCT: Z1065
!!!TXL: @@DE
!!!YEM: Copyright 1995, estate of Helmut Schaffrath.
**kern	**text
*ICvox	*
*M4/4	*
*met(c)	*
*k[b-]	*
*F:	*
=1	=1
!LO:TX:a:t=Vom Mittelrhein.	!
{4f	Wei-
4a	-ne
4f	nicht,
4a	Feins-
=2	=2
8gL	-mäg-
8fJ	.
8gL	-de-
8aJ	.
4f	-lein,
4r}	.
=3	=3
{4a	wei-
4cc/	-ne
4a	nicht,
4cc/	Feins-
=4	=4
8b-L	-mäg-
8aJ	.
8b-/L	-de-
8ccJ	.
4a	-lein,
4r}	.
=5	=5
{4g	treu
4g	bleib
8aL	ich
8gJ	.
8fL	dir,
8gJ	.
=6	=6
4a	feſt
4a	und
8cc/L	bie-
8b-J	.
4a}	-der,
=7	=7
{4g	kehr'
4g	nach
8a/L	Jahr
8gJ	.
8fL	und
8gJ	.
=8	=8
4a	Tag
4a	dir
8cc/L	wie-
8b-J	.
4a}	-der,
=9	=9
{(>2cc/	ach,
8dd/L)	.
8ccJ	.
8b-/L	es
8aJ	.
=10	=10
(>2b-/	muß,
8cc/L)	.
8b-J}	.
{8aL	es
8gJ	.
=11	=11
4a	muß
4a	ge-
8b-/L	-ſchie-
8aJ	.
8b-/L	-den
8ccJ	.
=12	=12
2a	ſeyn!
2r}	.
==	==
!!!AGN: Romanze, Ballade, Tod
!!!ONB: ESAC (Essen Associative Code) Database: ZUCCAL
!!!AMT: simple quadruple
!!!AIN: vox
!!!EED: Helmut Schaffrath
!!!EEV: 1.0
!!!RDF**kern: >= above
!!!GTL: II. Gau- Leuschen.
!!!URL-scan: https://www.digitale-sammlungen.de/de/view/bsb11160573?page=144
!!!ENC: Anna Maria Matuszewska
!!!EEV: 2025/03/02
*-	*-
